src/icons/solid/symbols/puzzle.svg

<svg width="24" height="24" viewBox="0 0 24 24" fill="none" xmlns="http://www.w3.org/2000/svg">
<g clip-path="url(#clip0_4922_1061)">
<path fill-rule="evenodd" clip-rule="evenodd" d="M12.568 1C12.0666 1 11.596 1.19447 11.2481 1.55269L8.82328 3.97838C8.27079 1.8495 6.10174 0.580366 3.97361 1.13306C1.84548 1.68575 0.576789 3.85557 1.12928 5.98445C1.48738 7.37641 2.58214 8.47155 3.97361 8.82978L1.54877 11.2555C0.822343 11.9822 0.822343 13.1694 1.54877 13.9063L3.52343 15.8817C3.70759 16.0659 4.0043 16.0659 4.18847 15.8817C4.22939 15.8407 4.27032 15.7896 4.29078 15.7282C4.94559 14.1827 6.72585 13.456 8.27079 14.1008C9.81573 14.7558 10.5422 16.5367 9.89758 18.0822C9.59064 18.8191 9.00745 19.3923 8.27079 19.7096C8.03547 19.8119 7.92292 20.0883 8.02523 20.3237C8.0457 20.3749 8.08662 20.426 8.12755 20.4772L10.1022 22.4526C10.8286 23.1792 12.0155 23.1792 12.7521 22.4526L15.177 20.0269C15.709 22.0636 17.7348 23.3328 19.8016 22.9234C21.9604 22.4935 23.3518 20.3953 22.9221 18.246C22.6254 16.7517 21.5 15.5542 20.0266 15.1755L22.4515 12.7498C23.1779 12.0231 23.1779 10.8358 22.4515 10.0989L20.4768 8.12356C20.2927 7.93933 19.996 7.93933 19.8118 8.12356C19.7709 8.1645 19.7402 8.21567 19.7095 8.27708C19.0547 9.82257 17.2744 10.5493 15.7295 9.90445C14.1845 9.25964 13.4581 7.46852 14.1027 5.92304C14.4096 5.18612 14.9928 4.61296 15.7295 4.29567C15.9648 4.19332 16.0773 3.91698 15.975 3.68157C15.9546 3.6304 15.9136 3.57922 15.8727 3.52805L13.8981 1.55269C13.5502 1.2047 13.0693 1 12.5782 1H12.568Z" fill="#3C3B44"/>
</g>
<defs>
<clipPath id="clip0_4922_1061">
<rect width="24" height="24" fill="white"/>
</clipPath>
</defs>
</svg>

<svg xmlns="http://www.w3.org/2000/svg" width="24" height="24" fill="none" viewBox="0 0 24 24"><g clip-path="url(#a)"><path fill="currentColor" fill-rule="evenodd" d="M12.568 1c-.501 0-.972.194-1.32.553L8.823 3.978a3.97 3.97 0 0 0-4.85-2.845A3.973 3.973 0 0 0 1.13 5.984 3.97 3.97 0 0 0 3.974 8.83l-2.425 2.425a1.885 1.885 0 0 0 0 2.651l1.974 1.976a.47.47 0 0 0 .768-.154 3.05 3.05 0 0 1 3.98-1.627 3.05 3.05 0 0 1 1.627 3.981A3.05 3.05 0 0 1 8.27 19.71a.47.47 0 0 0-.246.614c.02.05.062.102.103.153l1.974 1.976a1.883 1.883 0 0 0 2.65 0l2.425-2.426a3.974 3.974 0 0 0 7.745-1.78 3.97 3.97 0 0 0-2.895-3.072l2.424-2.425a1.885 1.885 0 0 0 0-2.651l-1.974-1.975a.47.47 0 0 0-.768.153 3.05 3.05 0 0 1-3.98 1.627c-1.544-.644-2.27-2.435-1.626-3.981.307-.737.89-1.31 1.627-1.627a.47.47 0 0 0 .245-.614c-.02-.052-.061-.103-.102-.154l-1.975-1.975A1.88 1.88 0 0 0 12.578 1z" clip-rule="evenodd"/></g><defs><clipPath id="a"><path fill="currentColor" d="M0 0h24v24H0z"/></clipPath></defs></svg>
